T: Showman's Fancy, The
M: 4/4
L: 1/8
K: Dmaj
A>^GA>B A>df>d | B>dg>f e>dc>B | A>^GA>B A>FD>F | E>^DE>F E2 (3FG^G | A>^GA>B A>df>d | B>dg>f e>dc>B | A>df>d g>ec>e | d>ed>c d2 :|  e>^de>f g>ec>A | d>cd>e f>dA>f | (3gag (3fgf (3efe (3ded | (3cdc (3BcB A2 (3FG^G | A>^GA>B A>df>d | B>dg>f e>dc>B | A>df>d g>e (3cBA | d2 d>c d2 :|  |: (3EFG |\ ~ instead of ~ |: (3FG^G |\ ~ and ~ |: (3Bcd |\ ~ instead of ~ |: (3cd^d |\~ | A>df>d g>ec>e | d>ed>c d2 :| ~ | A>df>d g>e (3cBA | d2 d>c d2 :| ~ | A>d (3fed (3gfe (3cBA | (3ded c>e d2 :| ~ | A2 f>d g2 c>B | A>dd>c d2 :|
